public/assets/gear-lightblue.svg

<svg width="238" height="238" viewBox="0 0 238 238" fill="none" xmlns="http://www.w3.org/2000/svg">
<path d="M119.032 81.5364C98.3258 81.5364 81.5254 98.3369 81.5254 119.058C81.5254 139.756 98.3258 156.586 119.032 156.586C139.738 156.586 156.42 139.756 156.42 119.058C156.42 98.3369 139.745 81.5364 119.032 81.5364ZM194.23 140.601L187.471 156.883L201.122 183.688L184.403 200.407L156.976 187.453L140.694 194.137L132.431 219.438L131.371 222.795H107.745L97.5181 194.234L81.2364 187.519L54.3942 201.111L37.6826 184.407L50.622 156.964L43.9152 140.697L15.3092 131.36V107.741L43.8855 97.4995L50.5924 81.2474L38.5719 57.5178L36.986 54.4052L53.6753 37.7159L81.14 50.6479L97.3995 43.9262L105.655 18.6403L106.722 15.2906H130.348L140.583 43.8818L156.82 50.6034L183.699 36.9822L200.403 53.6715L187.464 81.0918L194.148 97.3809L222.806 106.704V130.315L194.237 140.594L194.23 140.601Z" fill="#A2E1FF"/>
</svg>

<svg width="238" height="238" fill="none" xmlns="http://www.w3.org/2000/svg"><path d="M119.032 81.536c-20.706 0-37.507 16.8-37.507 37.522 0 20.698 16.8 37.528 37.507 37.528 20.706 0 37.388-16.83 37.388-37.528 0-20.721-16.675-37.522-37.388-37.522Zm75.198 59.065-6.759 16.282 13.651 26.805-16.719 16.719-27.427-12.954-16.282 6.684-8.263 25.301-1.06 3.357h-23.626l-10.227-28.561-16.282-6.715-26.842 13.592-16.711-16.704 12.939-27.443-6.707-16.267-28.606-9.337v-23.619l28.577-10.242 6.706-16.252-12.02-23.73-1.586-3.112 16.69-16.69L81.14 50.649l16.26-6.722 8.255-25.286 1.067-3.35h23.626l10.235 28.592 16.237 6.721 26.879-13.62 16.704 16.689-12.939 27.42 6.684 16.289 28.658 9.323v23.611l-28.569 10.279-.007.007Z" fill="#A2E1FF"/></svg>
